X:1059
T:Merry Boys Of Greenland, The
T:Da Merry Boys o' Greenland
R:reel
O:Shetland
Z:id:hn-reel-1059
M:C|
L:1/8
K:D
ABde fdf2 | e2ce Aece | ABde fdfa | gece d2d2 :|
|: fgfe fga2 | gfed efg2 | fgfe fgaf | gece d2d2 :|

